pix/monologo.svg

<?xml version="1.0" encoding="UTF-8" standalone="no" ?>
<!DOCTYPE svg PUBLIC "-//W3C//DTD SVG 1.1//EN" "http://www.w3.org/Graphics/SVG/1.1/DTD/svg11.dtd">
<svg xmlns="http://www.w3.org/2000/svg" xmlns:xlink="http://www.w3.org/1999/xlink" version="1.1" width="24" height="24" viewBox="-23.448825 0 289.22449 289.22449" xml:space="preserve">
<desc>Created with Fabric.js 4.6.0</desc>
<defs>
</defs>
<g transform="matrix(0.75 0 0 0.75 121.08 144.71)" id="nWSBYnQ-ptC7vH_idivev"  >
<g style="" vector-effect="non-scaling-stroke"   >
		<g transform="matrix(1.33 0 0 1.33 -121.79 -32.16)" id="Ou2ZgRUBgtCFkza1qodlw"  >
<path style="stroke: none; stroke-width: 0.1; stroke-dasharray: none; stroke-linecap: butt; stroke-dashoffset: 0; stroke-linejoin: miter; stroke-miterlimit: 4; fill: rgb(0,0,0); fill-rule: nonzero; opacity: 1;" vector-effect="non-scaling-stroke"  transform=" translate(-29.82, -120.49)" d="M 22.068375 104.69142 C 8.8683752 111.49141999999999 8.8683752 129.49142 22.068375 136.29142 C 33.768375 142.29142 47.468374999999995 133.79142 47.468374999999995 120.49141999999999 C 47.468374999999995 107.19142 33.76837499999999 98.69142099999999 22.068374999999996 104.69142 z" stroke-linecap="round" />
</g>
		<g transform="matrix(1.33 0 0 1.33 54.21 -0.13)" id="p4ujW3vLAS7ZoG7vRM-bz"  >
<path style="stroke: none; stroke-width: 0.1; stroke-dasharray: none; stroke-linecap: butt; stroke-dashoffset: 0; stroke-linejoin: miter; stroke-miterlimit: 4; fill: rgb(0,0,0); fill-rule: nonzero; opacity: 1;" vector-effect="non-scaling-stroke"  transform=" translate(-161.82, -144.51)" d="M 229.06838 116.39142 C 237.96838 120.49141999999999 239.56838 124.89142 239.56838 144.69142 C 239.56838 157.39141999999998 239.16837999999998 160.69142 237.66837999999998 164.09142 C 235.46838 168.79142 231.76837999999998 172.09142 226.66837999999998 173.59142 C 224.26837999999998 174.29142 202.06837 174.49142 159.56837 174.29142 L 96.06837499999999 173.99141999999998 L 92.36837499999999 171.69141999999997 C 90.36837499999999 170.39141999999995 87.66837499999998 167.69141999999997 86.36837499999999 165.69141999999997 C 84.16837499999998 162.19141999999997 84.06837499999999 160.99141999999998 84.06837499999999 144.49141999999998 C 84.06837499999999 127.99141999999998 84.16837499999998 126.79141999999997 86.36837499999999 123.29141999999997 C 87.66837499999998 121.29141999999997 90.36837499999999 118.59141999999997 92.36837499999999 117.29141999999997 L 96.06837499999999 114.99141999999998 L 160.56837 114.79141999999997 C 221.56837 114.49141999999998 225.26837999999998 114.59141999999997 229.06838 116.39141999999997 z M 107.56837999999999 144.49142 L 107.56837999999999 150.49142 L 125.56837999999999 150.49142 L 143.56837 150.49142 L 143.56837 144.49142 L 143.56837 138.49142 L 125.56837999999999 138.49142 L 107.56837999999999 138.49142 z" stroke-linecap="round" />
</g>
		<g transform="matrix(1.33 0 0 1.33 -121.58 32.07)" id="FuzsSgcA7Xpin4MYUHzHr"  >
<path style="stroke: none; stroke-width: 0.1; stroke-dasharray: none; stroke-linecap: butt; stroke-dashoffset: 0; stroke-linejoin: miter; stroke-miterlimit: 4; fill: rgb(0,0,0); fill-rule: nonzero; opacity: 1;" vector-effect="non-scaling-stroke"  transform=" translate(-29.98, -168.66)" d="M 18.068375 151.35698 C 10.468375 153.75698 5.368375199999999 158.35698 2.1683752 165.45698 C -1.5316248000000003 173.65697999999998 0.06837520999999969 181.85698 6.0683752 184.95698 C 10.368375 187.15697999999998 48.768375 187.15697999999998 53.568374999999996 184.85698 C 64.468375 179.65698 60.268375 160.35698 46.668375 153.25698 C 43.368375 151.45698 40.568374999999996 150.95698 31.568374999999996 150.75698 C 25.568374999999996 150.65698 19.468374999999995 150.85698 18.068374999999996 151.35698 z" stroke-linecap="round" />
</g>
		<g transform="matrix(1.33 0 0 1.33 -121.73 104.82)" id="FFUJJN9ATDirxHe2QkhOo"  >
<path style="stroke: none; stroke-width: 0.1; stroke-dasharray: none; stroke-linecap: butt; stroke-dashoffset: 0; stroke-linejoin: miter; stroke-miterlimit: 4; fill: rgb(0,0,0); fill-rule: nonzero; opacity: 1;" vector-effect="non-scaling-stroke"  transform=" translate(-29.87, -223.22)" d="M 22.068375 207.42447 C 8.8683752 214.22447000000003 8.8683752 232.22447000000003 22.068375 239.02447 C 33.868375 245.12447 47.568375 236.62447 47.568375 223.22447 C 47.568375 209.82447 33.868375 201.32447 22.068375000000003 207.42446999999999 z" stroke-linecap="round" />
</g>
		<g transform="matrix(1.33 0 0 1.33 54.21 136.85)" id="-UspU2Qxcu1Kd-EpGp_uk"  >
<path style="stroke: none; stroke-width: 0.1; stroke-dasharray: none; stroke-linecap: butt; stroke-dashoffset: 0; stroke-linejoin: miter; stroke-miterlimit: 4; fill: rgb(0,0,0); fill-rule: nonzero; opacity: 1;" vector-effect="non-scaling-stroke"  transform=" translate(-161.82, -247.25)" d="M 94.568375 219.12447 C 85.668375 223.22447 84.068375 227.62447 84.068375 247.42447 C 84.068375 260.12447000000003 84.46837500000001 263.42447000000004 85.96837500000001 266.82447 C 88.16837500000001 271.52447 91.86837500000001 274.82447 96.96837500000001 276.32447 C 99.36837500000001 277.02447 121.66838000000001 277.22447 164.16838 277.02447 L 227.66838 276.72447 L 231.76838 274.02447 C 238.66838 269.52447 239.56838000000002 266.22447 239.56838000000002 247.22447 C 239.56838000000002 228.22447 238.66838 224.92446999999999 231.76838 220.42446999999999 L 227.66838 217.72447 L 163.16838 217.52447 C 102.06838000000002 217.22447 98.36837500000001 217.32447000000002 94.56837500000002 219.12447 z M 216.06838 247.22447 L 216.06838 253.22447 L 174.06838 253.22447 L 132.06838 253.22447 L 132.06838 247.22447 L 132.06838 241.22447 L 174.06838 241.22447 L 216.06838 241.22447 z" stroke-linecap="round" />
</g>
		<g transform="matrix(1.33 0 0 1.33 -121.51 169)" id="xV3WOd7f1z-KA16tqkNHq"  >
<path style="stroke: none; stroke-width: 0.1; stroke-dasharray: none; stroke-linecap: butt; stroke-dashoffset: 0; stroke-linejoin: miter; stroke-miterlimit: 4; fill: rgb(0,0,0); fill-rule: nonzero; opacity: 1;" vector-effect="non-scaling-stroke"  transform=" translate(-30.03, -271.36)" d="M 18.068375 254.12447 C 4.6683752 258.42447 -3.631624800000001 273.12447 1.5683751999999984 283.22447 C 4.368375199999998 288.72447 6.868375199999998 289.22447 29.568375 289.22447 C 46.868375 289.22447 50.868375 288.92447 53.768375 287.52447 C 57.468375 285.82447 60.068374999999996 281.32447 60.068374999999996 276.82447 C 60.068374999999996 272.42447000000004 56.168375 263.72447 52.86837499999999 260.52447 C 46.86837499999999 254.92447 43.56837499999999 253.82447000000002 31.568374999999993 253.52447 C 25.568374999999993 253.42447 19.468374999999995 253.62447 18.068374999999993 254.12447 z" stroke-linecap="round" />
</g>
		<g transform="matrix(1.33 0 0 1.33 -121.79 -169.14)" id="IOAgxWfvRhiytB1k7_Vm7"  >
<path style="stroke: none; stroke-width: 0.1; stroke-dasharray: none; stroke-linecap: butt; stroke-dashoffset: 0; stroke-linejoin: miter; stroke-miterlimit: 4; fill: rgb(0,0,0); fill-rule: nonzero; opacity: 1;" vector-effect="non-scaling-stroke"  transform=" translate(-29.82, -17.76)" d="M 22.06875 1.9583717 C 8.868750000000002 8.7583717 8.868750000000002 26.758372 22.06875 33.558372 C 33.76875 39.558372 47.46875 31.058372 47.46875 17.758371999999998 C 47.46875 4.458371699999997 33.76875 -4.041628300000003 22.06875 1.9583716999999972 z" stroke-linecap="round" />
</g>
		<g transform="matrix(1.33 0 0 1.33 54.21 -137.11)" id="ZGMh4VSEmoLMfr9qNbW3Z"  >
<path style="stroke: none; stroke-width: 0.1; stroke-dasharray: none; stroke-linecap: butt; stroke-dashoffset: 0; stroke-linejoin: miter; stroke-miterlimit: 4; fill: rgb(0,0,0); fill-rule: nonzero; opacity: 1;" vector-effect="non-scaling-stroke"  transform=" translate(-161.82, -41.78)" d="M 94.568245 13.658372 C 85.66825 17.758372 84.06825 22.158372 84.06825 41.958372 C 84.06825 54.658372 84.46825000000001 57.958372 85.96825000000001 61.358371999999996 C 88.16824500000001 66.05837199999999 91.86824500000002 69.358372 96.96824500000001 70.858372 C 99.36825000000002 71.558372 121.56825 71.75837200000001 164.06825 71.558372 L 227.56825 71.25837200000001 L 231.26825 68.95837200000001 C 233.26825 67.65837200000001 235.96824999999998 64.95837200000001 237.26825 62.95837200000001 C 239.46824999999998 59.45837200000001 239.56825 58.25837200000001 239.56825 41.75837200000001 C 239.56825 25.25837200000001 239.46825 24.05837200000001 237.26825 20.55837200000001 C 235.96824999999998 18.55837200000001 233.26825 15.85837200000001 231.26825 14.55837200000001 L 227.56825 12.258372000000008 L 163.06825 12.05837200000001 C 102.06825 11.758372000000008 98.36825 11.85837200000001 94.568245 13.658372000000009 z M 216.06825 41.758372 L 216.06825 47.758372 L 198.06825 47.758372 L 180.06825 47.758372 L 180.06825 41.758372 L 180.06825 35.758372 L 198.06825 35.758372 L 216.06825 35.758372 z" stroke-linecap="round" />
</g>
		<g transform="matrix(1.33 0 0 1.33 -121.58 -104.86)" id="Qj6YeCjawDHLb-UPH4iqC"  >
<path style="stroke: none; stroke-width: 0.1; stroke-dasharray: none; stroke-linecap: butt; stroke-dashoffset: 0; stroke-linejoin: miter; stroke-miterlimit: 4; fill: rgb(0,0,0); fill-rule: nonzero; opacity: 1;" vector-effect="non-scaling-stroke"  transform=" translate(-29.98, -65.96)" d="M 18.0686 48.658372 C 10.4686 51.058372 5.368600499999999 55.658372 2.1686005 62.758372 C -1.5313995 70.958372 0.06860047000000025 79.158372 6.0686003 82.25837200000001 C 10.3686 84.45837200000001 48.7686 84.45837200000001 53.568599999999996 82.15837200000001 C 64.4686 76.95837200000001 60.2686 57.658372000000014 46.6686 50.55837200000001 C 43.3686 48.758372000000016 40.568599999999996 48.258372000000016 31.568599999999996 48.05837200000001 C 25.568599999999996 47.95837200000001 19.468599999999995 48.158372000000014 18.068599999999996 48.658372000000014 z" stroke-linecap="round" />
</g>
</g>
</g>
</svg>

<?xml version="1.0" encoding="UTF-8" standalone="no"?>
<svg
   xmlns:dc="http://purl.org/dc/elements/1.1/"
   xmlns:cc="http://creativecommons.org/ns#"
   xmlns:rdf="http://www.w3.org/1999/02/22-rdf-syntax-ns#"
   xmlns:svg="http://www.w3.org/2000/svg"
   xmlns="http://www.w3.org/2000/svg"
   xmlns:sodipodi="http://sodipodi.sourceforge.net/DTD/sodipodi-0.dtd"
   xmlns:inkscape="http://www.inkscape.org/namespaces/inkscape"
   version="1.0"
   width="242.32684pt"
   height="289.22449pt"
   viewBox="0 0 242.32684 289.22449"
   preserveAspectRatio="xMidYMid meet"
   id="svg16"
   sodipodi:docname="monologo.svg"
   inkscape:version="0.92.4 (5da689c313, 2019-01-14)">
  <metadata
     id="metadata22">
    <rdf:RDF>
      <cc:Work
         rdf:about="">
        <dc:format>image/svg+xml</dc:format>
        <dc:type
           rdf:resource="http://purl.org/dc/dcmitype/StillImage" />
        <dc:title />
      </cc:Work>
    </rdf:RDF>
  </metadata>
  <defs
     id="defs20" />
  <sodipodi:namedview
     pagecolor="#ffffff"
     bordercolor="#666666"
     borderopacity="1"
     objecttolerance="10"
     gridtolerance="10"
     guidetolerance="10"
     inkscape:pageopacity="0"
     inkscape:pageshadow="2"
     inkscape:window-width="1920"
     inkscape:window-height="1129"
     id="namedview18"
     showgrid="false"
     inkscape:zoom="1.153529"
     inkscape:cx="149.34215"
     inkscape:cy="143.25088"
     inkscape:window-x="-8"
     inkscape:window-y="-8"
     inkscape:window-maximized="1"
     inkscape:current-layer="svg16" />
  <path
     style="fill:#000000;stroke:none;stroke-width:0.1"
     inkscape:connector-curvature="0"
     id="path2"
     d="m 22.068375,104.69142 c -13.1999998,6.8 -13.1999998,24.8 0,31.6 11.7,6 25.4,-2.5 25.4,-15.8 0,-13.3 -13.7,-21.799999 -25.4,-15.8 z" />
  <path
     style="fill:#000000;stroke:none;stroke-width:0.1"
     inkscape:connector-curvature="0"
     id="path4"
     d="m 229.06838,116.39142 c 8.9,4.1 10.5,8.5 10.5,28.3 0,12.7 -0.4,16 -1.9,19.4 -2.2,4.7 -5.9,8 -11,9.5 -2.4,0.7 -24.60001,0.9 -67.10001,0.7 l -63.499995,-0.3 -3.7,-2.3 c -2,-1.3 -4.7,-4 -6,-6 -2.2,-3.5 -2.3,-4.7 -2.3,-21.2 0,-16.5 0.1,-17.7 2.3,-21.2 1.3,-2 4,-4.7 6,-6 l 3.7,-2.3 64.499995,-0.2 c 61,-0.3 64.70001,-0.2 68.50001,1.6 z m -121.5,28.1 v 6 h 18 17.99999 v -6 -6 h -17.99999 -18 z" />
  <path
     style="fill:#000000;stroke:none;stroke-width:0.1"
     inkscape:connector-curvature="0"
     id="path6"
     d="m 18.068375,151.35698 c -7.6,2.4 -12.6999998,7 -15.8999998,14.1 -3.7,8.2 -2.09999999,16.4 3.9,19.5 4.2999998,2.2 42.6999998,2.2 47.4999998,-0.1 10.9,-5.2 6.7,-24.5 -6.9,-31.6 -3.3,-1.8 -6.1,-2.3 -15.1,-2.5 -6,-0.1 -12.1,0.1 -13.5,0.6 z" />
  <path
     style="fill:#000000;stroke:none;stroke-width:0.1"
     inkscape:connector-curvature="0"
     id="path8"
     d="m 22.068375,207.42447 c -13.1999998,6.8 -13.1999998,24.8 0,31.6 11.8,6.1 25.5,-2.4 25.5,-15.8 0,-13.4 -13.7,-21.9 -25.5,-15.8 z" />
  <path
     style="fill:#000000;stroke:none;stroke-width:0.1"
     inkscape:connector-curvature="0"
     id="path10"
     d="m 94.568375,219.12447 c -8.9,4.1 -10.5,8.5 -10.5,28.3 0,12.7 0.4,16 1.9,19.4 2.2,4.7 5.9,8 11,9.5 2.4,0.7 24.700005,0.9 67.200005,0.7 l 63.5,-0.3 4.1,-2.7 c 6.9,-4.5 7.8,-7.8 7.8,-26.8 0,-19 -0.9,-22.3 -7.8,-26.8 l -4.1,-2.7 -64.5,-0.2 c -61.1,-0.3 -64.800005,-0.2 -68.600005,1.6 z m 121.500005,28.1 v 6 h -42 -42 v -6 -6 h 42 42 z" />
  <path
     style="display:inline;fill:#000000;stroke:none;stroke-width:0.1"
     inkscape:connector-curvature="0"
     id="path12"
     d="m 18.068375,254.12447 c -13.3999998,4.3 -21.6999998,19 -16.4999998,29.1 2.8,5.5 5.3,6 27.9999998,6 17.3,0 21.3,-0.3 24.2,-1.7 3.7,-1.7 6.3,-6.2 6.3,-10.7 0,-4.4 -3.9,-13.1 -7.2,-16.3 -6,-5.6 -9.3,-6.7 -21.3,-7 -6,-0.1 -12.1,0.1 -13.5,0.6 z" />
  <path
     d="m 22.06875,1.9583717 c -13.2,6.8 -13.2,24.8000003 0,31.6000003 11.7,6 25.4,-2.5 25.4,-15.8 0,-13.3000003 -13.7,-21.8000003 -25.4,-15.8000003 z"
     id="path835"
     inkscape:connector-curvature="0"
     style="fill:#000000;stroke:none;stroke-width:0.1" />
  <path
     d="m 94.568245,13.658372 c -8.899995,4.1 -10.499995,8.5 -10.499995,28.3 0,12.7 0.4,16 1.9,19.4 2.199995,4.7 5.899995,8 10.999995,9.5 2.400005,0.7 24.600005,0.9 67.100005,0.7 l 63.5,-0.3 3.7,-2.3 c 2,-1.3 4.7,-4 6,-6 2.2,-3.5 2.3,-4.7 2.3,-21.2 0,-16.5 -0.1,-17.7 -2.3,-21.2 -1.3,-2 -4,-4.7 -6,-6 l -3.7,-2.3 -64.5,-0.2 c -61,-0.3 -64.7,-0.2 -68.500005,1.6 z m 121.500005,28.1 v 6 h -18 -18 v -6 -6 h 18 18 z"
     id="path837"
     inkscape:connector-curvature="0"
     style="fill:#000000;stroke:none;stroke-width:0.1" />
  <path
     d="m 18.0686,48.658372 c -7.6,2.4 -12.6999995,7 -15.8999995,14.1 -3.7,8.2 -2.10000003,16.4 3.8999998,19.5 4.2999997,2.2 42.6999997,2.2 47.4999997,-0.1 10.9,-5.2 6.7,-24.5 -6.9,-31.6 -3.3,-1.8 -6.1,-2.3 -15.1,-2.5 -6,-0.1 -12.1,0.1 -13.5,0.6 z"
     id="path839"
     inkscape:connector-curvature="0"
     style="fill:#000000;stroke:none;stroke-width:0.1" />
</svg>
